X:1
T:126 - Louvai
T:Letra: Fanny Jane Crosby (1820-1915)
T:Trad.: Salomão Luiz Ginsburg (1867-1927)
T:Música: Chester G. Allen (1838-1878)
M:6/8
L:1/8
Q:1/4=140
K:Ab
V:1
"Ab"c3e3 | A3c3 | "Db"BcB AGF | "Ab"E3A3 | c3e3 | "Fm"A3c3 | "Bb7"cBA B2c | "Eb"B3z3 | "Ab"c3e3 | A3c3 | "Db"BcB AGF | "Ab"E3A3 | c3e3 | "Db"d3"(Bbm)"B3 | "Ab/Eb"AGA "Eb7"c2B | "Ab"A3z3 || "Eb"B3c3 | B2G E3 | "Eb7"dcB c2d | "Ab/Eb"c3"Eb"B3 | "Ab"c3e3 | "Fm"A3c3 | "Bb7"cBA B2c | "Eb"B3z3 | "Ab"c3e3 | A3c3 | "Db"BcB AGF | "Ab"E3A3 | c3e3 | "Db"d3"(Bbm)"B3 | "Ab/Eb7"AGA "Eb7"c2B | "Ab"A3z3 |] 
w: 1.~Lou-vai, lou-vai Cris-to,o bom Mes-tre di-vi-no! Por nós na cruz E-le so-freu, mor-reu; Per-dão, per-dão ho-jeaos con-tri-tos ou-tor-ga, Pois pre-cio-so san-gue na cruz ver-teu. Sim, lou-vai_O; ei-Lo tão e-xal-ta-do, Me-dia-dor que nun-ca nos fal-ta-rá.     Lou-vai, lou-vai, fa-lai da su-a gran-de-za,    Do per-dão, da gra-ça quea to-dos dá.
w: 2.~Lou-vai, lou-vai Cris-to,o bom Mes-tre di-vi-no! Con-se-lhos bons dá E-leao pe-ca-dor; A-nun-ci-ai as bên-çãos ma-ra-vi-lho-sas, Con-ce-di-das por es-se Sal-va-dor. I-de, to_dos, ser-vos de Je-sus Cris-to, E-le nun-ca vos a-ban-do-na-rá.
w: 3.~Lou-vai, lou-vai Cris-to,o bom Mes-tre di-vi-no! Can-tai, can-tai, seu gran-dea-mor can-tai; Fi-éis, can-tai de co-ra-ção, bem u-ni-dos, Seu po-der e gló-ria lou-vai, lou-vai! Qual pas-tor_ que cui-da do seu re-ba-nho, Cris-toas-sim os cren-tes pro-te-ge-rá.
W: 
W:
W: 1. Louvai, louvai 
W: Cristo, o bom Mestre divino!
W: Por nós na cruz 
W: Ele sofreu, morreu;
W: Perdão, perdão 
W: hoje aos contritos outorga,
W: Pois precioso sangue na cruz verteu.
W: Sim, louvai-O; 
W: ei-Lo tão exaltado,
W: Mediador que nunca nos faltará.
W: 
W:    (Estribilho)
W:    Louvai, louvai, falai da sua grandeza,
W:    Do perdão, da graça que a todos dá.
W: 
W: 
W: 
W: 2. Louvai, louvai 
W: Cristo, o bom Mestre divino!
W: Conselhos bons 
W: dá Ele ao pecador;
W: Anunciai as bênçãos maravilhosas,
W: Concedidas por esse Salvador.
W: Ide, todos, 
W: servos de Jesus Cristo,
W: Ele nunca vos abandonará.
W: 
W: 3. Louvai, louvai 
W: Cristo, o bom Mestre divino!
W: Cantai, cantai, 
W: seu grande amor cantai;
W: Fiéis, cantai 
W: de coração, bem unidos,
W: Seu poder e glória louvai, louvai!
W: Qual pastor que 
W: cuida do seu rebanho,
W: Cristo assim os crentes protegerá.
W:         
W: 





